T: Balance The Straw
M: 4/4
L: 1/8
K: Gmaj
dc|B2B2 BdcB|A2 A2 A2 Bc|d2 cB c2 BA|G2 GA G2dc|
|B2 B2 BdcB|A2 A2 A2 Bc|d2 cB c2BA|G2 GA G2|
gf|e2 d2 d2 cB|BA A2 A2 gf|e2 d2 d2 cB|AGAB A2 dc|
|B2 B2 BdcB|A2 A2 A2 Bc|dgdB dcBA|G2 G>A G2||
